X:1
T:Title
%%score { ( 1 3 ) | ( 2 4 ) }
L:1/8
M:4/4
K:Ab
V:1 treble nm="Grand Piano"
V:3 treble 
V:2 bass 
V:4 bass 
V:1
 z4 z2[Q:1/4=110] E2 | A2 E2 C2 E2 | [CA]2 [CA]4 [CA][DB] | [Ec]2 [Ec]2 [Ec]2 [DB]2 | [CA]6 [EG]2 | %5
 F2 A2 G2 D2 | [A,CE]2 [CEA]4 [CEA]2 | [B,=DA]2 F2 G2 A2 | B6 E2 | c2 c2 [Ec]2 [Ec]2 | %10
 [Ec]2 [EA]4 [EA]2 | [Ed]2 [Ed]2 d2 c2 | B6 E2 | [Ee]2 [Ec]2 [EB]2 [EA]2 | [EG]2 F4 F2 | %15
 E2 A2 c2 B2 |[M:5/8] [CA]- [CA]3 z |[M:3/8] [CE][CA][DB] |[M:4/4] [Ec]2 [Ac]2 [Gc]2 [Fc]2 | %19
 [Ec]2 [CA]2- [CA][CE][CA][DB] | [Ec]2 [Ac]2 [Gc]2 [Fc]2 | [Gd]6 z2 | d2 [Bd]2 [Ad]2 [Gd]2 | %23
 [Gd]2 [Ed]2- [Ed][EG][EA][EB] | [Ec]2 [Ece]2 [Ece]2 [Be]2 | .A2 z2 z4 | [Ec]2 [Ac]2 [Gc]2 [Fc]2 | %27
 [Ec]2 [CA]2- [CA][CE][CA][DB] | [Ec]2 [Ec]2 [_Ge]2 [Ge]2 | d2- [Fd-]2 [Fd]F=EF | A2 A2 z F=EF | %31
 A2 A2 z EAc | [Ae]4 [Ge]4 |[M:11/16] A-<A-[FA]-<[FA-][EA]3/2 |] %34
V:2
 z4 z2 E,2 | A,2 E,2 C,2 E,2 | [A,,E,]2 [A,,E,]4 [A,,A,]2 | [A,,A,]2 [A,,A,]2 [E,G,]2 [E,G,]2 | %4
 [A,,A,]6 [C,A,]2 | [D,A,D]2 [D,F,D]2 [D,G,D]2 [D,A,]2 | A,,2 A,,4 A,,2 | %7
 B,,2 [A,B,=D]2 [G,B,E]2 [F,A,D]2 | [E,G,D]6 [E,G,D]2 | [A,E]2 [E,A,E]2 [C,A,]2 [E,A,]2 | %10
 [A,,A,]2 [C,A,]4 [C,A,]2 | [B,,G,]2 [B,,G,]2 [E,G,E]2 [E,A,E]2 | [E,G,E]6 [D,G,]2 | %13
 [C,A,]2 [A,,A,]2 [B,,G,]2 [C,A,]2 | [D,A,]2 [D,A,D]4 [=D,A,_C]2 | %15
 [E,A,C]2 [E,CE]2 [E,A,E]2 [E,G,D]2 |[M:5/8] [A,,A,]- [A,,A,]3 z |[M:3/8] [A,,A,][A,,A,][A,,A,] | %18
[M:4/4] [A,,A,]2 [A,,E,]2 [A,,A,]2 [A,,A,]2 | [A,,A,]2 [A,,A,]2- [A,,A,][A,,A,][A,,A,][A,,A,] | %20
 [A,,A,]2 [A,,E,]2 [A,,A,]2 [A,,A,]2 | [E,G,]E,E,E, E,[E,G,][E,B,E][E,G,D] | %22
 [E,G,E]2 [E,G,]2 [E,B,]2 [E,B,]2 | [E,B,]2 [E,G,]2- [E,G,][D,G,][C,E,][B,,G,] | %24
 [A,,A,]2 A,,2 A,,2 [E,D]2 | [A,C]A,,[C,C][E,C] [A,C][A,,A,][A,,A,][A,,A,] | %26
 [A,,A,]2 [A,,E,]2 [A,,A,]2 [A,,A,]2 | [A,,A,]2 [A,,A,]2- [A,,A,][A,,A,][A,,A,][A,,A,] | %28
 [A,,A,]2 [A,,A,]2 [C,A,]2 [C,A,]2 | [D,A,]2 [A,,A,]2 [D,A,]F,=E,F, | %30
 [=D,F,_C]2 [D,F,C]2 z F,=E,F, | [E,A,C]2 [E,A,C]2 z E,A,C | [E,C]4 [E,D]4 | %33
[M:11/16] z/ z/ z D-<DC3/2 |] %34
V:3
 x8 | x8 | x8 | x8 | x8 | x8 | x8 | x8 | x8 | x8 | x8 | x8 | x8 | x8 | x8 | x8 |[M:5/8] x5 | %17
[M:3/8] x3 |[M:4/4] x8 | x8 | x8 | z G,G,C DEGB | x8 | x8 | x8 | e-[CAe-][Ae-][Ae-] [Ee]E[CA][DB] | %26
 x8 | x8 | x8 | F2 z2 z4 | x8 | x8 | x8 |[M:11/16] C-<C z/ z/ z/ z/ z/ z |] %34
V:4
 x8 | x8 | x8 | x8 | x8 | x8 | x8 | x8 | x8 | x8 | x8 | x8 | x8 | x8 | x8 | x8 |[M:5/8] x5 | %17
[M:3/8] x3 |[M:4/4] x8 | x8 | x8 | x8 | x8 | x8 | x8 | x8 | x8 | x8 | x8 | x8 | x8 | x8 | x8 | %33
[M:11/16] A,,/-A,,/-A,,/-A,,/-A,,/-A,,/-A,,/-A,,-<A,, |] %34

